svgs/sharp-solid/signal-bars-slash.svg

<svg xmlns="http://www.w3.org/2000/svg" viewBox="0 0 640 512"><!--! Font Awesome Pro 6.6.0 by @fontawesome - https://fontawesome.com License - https://fontawesome.com/license (Commercial License) Copyright 2024 Fonticons, Inc. --><path d="M608 0L512 0l0 374.7L448 325l0-197-96 0 0 122.5L48.4 14.8 29.4 .1 0 38 19 52.7 591.5 497.2l19 14.7L639.9 474l-19-14.7-12.9-10L608 0zM288 322.9L203.1 256 192 256l0 256 96 0 0-189.1zM448 449l-96-75.6L352 512l96 0 0-63zM128 384l-96 0 0 128 96 0 0-128z"/></svg>

<svg xmlns="http://www.w3.org/2000/svg" viewBox="0 0 640 512"><!--! Font Awesome Pro 6.4.0 by @fontawesome - https://fontawesome.com License - https://fontawesome.com/license (Commercial License) Copyright 2023 Fonticons, Inc. --><path d="M608 0H512V374.7L448 325V128H352V250.5L48.4 14.8 29.4 .1 0 38 19 52.7 591.5 497.2l19 14.7L639.9 474l-19-14.7-12.9-10V0zM288 322.9L203.1 256H192V512h96V322.9zM448 449l-96-75.6V512h96V449zM128 384H32V512h96V384z"/></svg>
